img/logo.svg

<svg width="200" height="100" viewBox="0 0 200 100" fill="none" xmlns="http://www.w3.org/2000/svg">
<rect x="1" y="1" width="198" height="98" rx="9" fill="white"/>
<path d="M46.9043 36.4062V62H42.4922L31.0137 43.666V62H26.6016V36.4062H31.0137L42.5273 54.7754V36.4062H46.9043Z" fill="black"/>
<path d="M72.5684 48.5V49.9062C72.5684 51.8398 72.3164 53.5742 71.8125 55.1094C71.3086 56.6445 70.5879 57.9512 69.6504 59.0293C68.7246 60.1074 67.6113 60.9336 66.3105 61.5078C65.0098 62.0703 63.5684 62.3516 61.9863 62.3516C60.416 62.3516 58.9805 62.0703 57.6797 61.5078C56.3906 60.9336 55.2715 60.1074 54.3223 59.0293C53.373 57.9512 52.6348 56.6445 52.1074 55.1094C51.5918 53.5742 51.334 51.8398 51.334 49.9062V48.5C51.334 46.5664 51.5918 44.8379 52.1074 43.3145C52.623 41.7793 53.3496 40.4727 54.2871 39.3945C55.2363 38.3047 56.3555 37.4785 57.6445 36.916C58.9453 36.3418 60.3809 36.0547 61.9512 36.0547C63.5332 36.0547 64.9746 36.3418 66.2754 36.916C67.5762 37.4785 68.6953 38.3047 69.6328 39.3945C70.5703 40.4727 71.291 41.7793 71.7949 43.3145C72.3105 44.8379 72.5684 46.5664 72.5684 48.5ZM68.1562 49.9062V48.4648C68.1562 47.0352 68.0156 45.7754 67.7344 44.6855C67.4648 43.584 67.0605 42.6641 66.5215 41.9258C65.9941 41.1758 65.3438 40.6133 64.5703 40.2383C63.7969 39.8516 62.9238 39.6582 61.9512 39.6582C60.9785 39.6582 60.1113 39.8516 59.3496 40.2383C58.5879 40.6133 57.9375 41.1758 57.3984 41.9258C56.8711 42.6641 56.4668 43.584 56.1855 44.6855C55.9043 45.7754 55.7637 47.0352 55.7637 48.4648V49.9062C55.7637 51.3359 55.9043 52.6016 56.1855 53.7031C56.4668 54.8047 56.877 55.7363 57.416 56.498C57.9668 57.248 58.623 57.8164 59.3848 58.2031C60.1465 58.5781 61.0137 58.7656 61.9863 58.7656C62.9707 58.7656 63.8438 58.5781 64.6055 58.2031C65.3672 57.8164 66.0117 57.248 66.5391 56.498C67.0664 55.7363 67.4648 54.8047 67.7344 53.7031C68.0156 52.6016 68.1562 51.3359 68.1562 49.9062Z" fill="black"/>
<path d="M101.977 58.502V62H89.127V58.502H101.977ZM90.3574 36.4062V62H85.9453V36.4062H90.3574Z" fill="black"/>
<path d="M124.635 48.5V49.9062C124.635 51.8398 124.383 53.5742 123.879 55.1094C123.375 56.6445 122.654 57.9512 121.717 59.0293C120.791 60.1074 119.678 60.9336 118.377 61.5078C117.076 62.0703 115.635 62.3516 114.053 62.3516C112.482 62.3516 111.047 62.0703 109.746 61.5078C108.457 60.9336 107.338 60.1074 106.389 59.0293C105.439 57.9512 104.701 56.6445 104.174 55.1094C103.658 53.5742 103.4 51.8398 103.4 49.9062V48.5C103.4 46.5664 103.658 44.8379 104.174 43.3145C104.689 41.7793 105.416 40.4727 106.354 39.3945C107.303 38.3047 108.422 37.4785 109.711 36.916C111.012 36.3418 112.447 36.0547 114.018 36.0547C115.6 36.0547 117.041 36.3418 118.342 36.916C119.643 37.4785 120.762 38.3047 121.699 39.3945C122.637 40.4727 123.357 41.7793 123.861 43.3145C124.377 44.8379 124.635 46.5664 124.635 48.5ZM120.223 49.9062V48.4648C120.223 47.0352 120.082 45.7754 119.801 44.6855C119.531 43.584 119.127 42.6641 118.588 41.9258C118.061 41.1758 117.41 40.6133 116.637 40.2383C115.863 39.8516 114.99 39.6582 114.018 39.6582C113.045 39.6582 112.178 39.8516 111.416 40.2383C110.654 40.6133 110.004 41.1758 109.465 41.9258C108.938 42.6641 108.533 43.584 108.252 44.6855C107.971 45.7754 107.83 47.0352 107.83 48.4648V49.9062C107.83 51.3359 107.971 52.6016 108.252 53.7031C108.533 54.8047 108.943 55.7363 109.482 56.498C110.033 57.248 110.689 57.8164 111.451 58.2031C112.213 58.5781 113.08 58.7656 114.053 58.7656C115.037 58.7656 115.91 58.5781 116.672 58.2031C117.434 57.8164 118.078 57.248 118.605 56.498C119.133 55.7363 119.531 54.8047 119.801 53.7031C120.082 52.6016 120.223 51.3359 120.223 49.9062Z" fill="black"/>
<path d="M148.699 48.9219V58.6953C148.336 59.1758 147.768 59.7031 146.994 60.2773C146.232 60.8398 145.219 61.3262 143.953 61.7363C142.688 62.1465 141.111 62.3516 139.225 62.3516C137.619 62.3516 136.148 62.082 134.812 61.543C133.477 60.9922 132.322 60.1895 131.35 59.1348C130.389 58.0801 129.645 56.7969 129.117 55.2852C128.59 53.7617 128.326 52.0273 128.326 50.082V48.3066C128.326 46.373 128.566 44.6504 129.047 43.1387C129.539 41.6152 130.242 40.3262 131.156 39.2715C132.07 38.2168 133.172 37.4199 134.461 36.8809C135.762 36.3301 137.232 36.0547 138.873 36.0547C140.971 36.0547 142.705 36.4062 144.076 37.1094C145.459 37.8008 146.525 38.7617 147.275 39.9922C148.025 41.2227 148.5 42.6289 148.699 44.2109H144.375C144.234 43.3203 143.959 42.5234 143.549 41.8203C143.15 41.1172 142.576 40.5664 141.826 40.168C141.088 39.7578 140.127 39.5527 138.943 39.5527C137.924 39.5527 137.027 39.7461 136.254 40.1328C135.48 40.5195 134.836 41.0879 134.32 41.8379C133.816 42.5879 133.436 43.502 133.178 44.5801C132.92 45.6582 132.791 46.8887 132.791 48.2715V50.082C132.791 51.4883 132.938 52.7363 133.23 53.8262C133.535 54.916 133.969 55.8359 134.531 56.5859C135.105 57.3359 135.803 57.9043 136.623 58.291C137.443 58.666 138.369 58.8535 139.4 58.8535C140.408 58.8535 141.234 58.7715 141.879 58.6074C142.523 58.4316 143.033 58.2266 143.408 57.9922C143.795 57.7461 144.094 57.5117 144.305 57.2891V52.209H138.979V48.9219H148.699Z" fill="black"/>
<path d="M173.994 48.5V49.9062C173.994 51.8398 173.742 53.5742 173.238 55.1094C172.734 56.6445 172.014 57.9512 171.076 59.0293C170.15 60.1074 169.037 60.9336 167.736 61.5078C166.436 62.0703 164.994 62.3516 163.412 62.3516C161.842 62.3516 160.406 62.0703 159.105 61.5078C157.816 60.9336 156.697 60.1074 155.748 59.0293C154.799 57.9512 154.061 56.6445 153.533 55.1094C153.018 53.5742 152.76 51.8398 152.76 49.9062V48.5C152.76 46.5664 153.018 44.8379 153.533 43.3145C154.049 41.7793 154.775 40.4727 155.713 39.3945C156.662 38.3047 157.781 37.4785 159.07 36.916C160.371 36.3418 161.807 36.0547 163.377 36.0547C164.959 36.0547 166.4 36.3418 167.701 36.916C169.002 37.4785 170.121 38.3047 171.059 39.3945C171.996 40.4727 172.717 41.7793 173.221 43.3145C173.736 44.8379 173.994 46.5664 173.994 48.5ZM169.582 49.9062V48.4648C169.582 47.0352 169.441 45.7754 169.16 44.6855C168.891 43.584 168.486 42.6641 167.947 41.9258C167.42 41.1758 166.77 40.6133 165.996 40.2383C165.223 39.8516 164.35 39.6582 163.377 39.6582C162.404 39.6582 161.537 39.8516 160.775 40.2383C160.014 40.6133 159.363 41.1758 158.824 41.9258C158.297 42.6641 157.893 43.584 157.611 44.6855C157.33 45.7754 157.189 47.0352 157.189 48.4648V49.9062C157.189 51.3359 157.33 52.6016 157.611 53.7031C157.893 54.8047 158.303 55.7363 158.842 56.498C159.393 57.248 160.049 57.8164 160.811 58.2031C161.572 58.5781 162.439 58.7656 163.412 58.7656C164.396 58.7656 165.27 58.5781 166.031 58.2031C166.793 57.8164 167.438 57.248 167.965 56.498C168.492 55.7363 168.891 54.8047 169.16 53.7031C169.441 52.6016 169.582 51.3359 169.582 49.9062Z" fill="black"/>
<rect x="1" y="1" width="198" height="98" rx="9" stroke="black" stroke-width="2"/>
</svg>

<svg width="200" height="100" fill="none" xmlns="http://www.w3.org/2000/svg"><rect x="1" y="1" width="198" height="98" rx="9" fill="#fff"/><path d="M46.904 36.406V62h-4.412L31.014 43.666V62h-4.412V36.406h4.412l11.513 18.37v-18.37h4.377zM72.568 48.5v1.406c0 1.934-.252 3.668-.755 5.203-.504 1.535-1.225 2.842-2.163 3.92a9.297 9.297 0 01-3.34 2.479c-1.3.562-2.742.844-4.324.844-1.57 0-3.005-.282-4.306-.844a9.673 9.673 0 01-3.358-2.479c-.949-1.078-1.687-2.385-2.215-3.92-.515-1.535-.773-3.27-.773-5.203V48.5c0-1.934.258-3.662.773-5.185.516-1.536 1.243-2.842 2.18-3.92a9.39 9.39 0 013.358-2.479c1.3-.574 2.736-.861 4.306-.861 1.582 0 3.024.287 4.324.861a9.19 9.19 0 013.358 2.479c.937 1.078 1.658 2.384 2.162 3.92.516 1.523.773 3.251.773 5.185zm-4.412 1.406v-1.441c0-1.43-.14-2.69-.422-3.78-.27-1.101-.673-2.02-1.212-2.76-.528-.75-1.178-1.312-1.952-1.687-.773-.386-1.646-.58-2.619-.58-.973 0-1.84.194-2.601.58-.762.375-1.413.938-1.952 1.688-.527.738-.931 1.658-1.213 2.76-.28 1.09-.421 2.35-.421 3.779v1.441c0 1.43.14 2.696.421 3.797.282 1.102.692 2.033 1.231 2.795.55.75 1.207 1.318 1.969 1.705.762.375 1.629.563 2.601.563.985 0 1.858-.188 2.62-.563.761-.387 1.406-.955 1.933-1.705.527-.762.926-1.693 1.195-2.795.282-1.101.422-2.367.422-3.797zm33.821 8.596V62h-12.85v-3.498h12.85zm-11.62-22.096V62h-4.412V36.406h4.412zM124.635 48.5v1.406c0 1.934-.252 3.668-.756 5.203-.504 1.535-1.225 2.842-2.162 3.92a9.298 9.298 0 01-3.34 2.479c-1.301.562-2.742.844-4.324.844-1.571 0-3.006-.282-4.307-.844a9.67 9.67 0 01-3.357-2.479c-.95-1.078-1.688-2.385-2.215-3.92-.516-1.535-.774-3.27-.774-5.203V48.5c0-1.934.258-3.662.774-5.185.515-1.536 1.242-2.842 2.18-3.92a9.386 9.386 0 013.357-2.479c1.301-.574 2.736-.861 4.307-.861 1.582 0 3.023.287 4.324.861a9.183 9.183 0 013.357 2.479c.938 1.078 1.658 2.384 2.162 3.92.516 1.523.774 3.251.774 5.185zm-4.412 1.406v-1.441c0-1.43-.141-2.69-.422-3.78-.27-1.101-.674-2.02-1.213-2.76-.527-.75-1.178-1.312-1.951-1.687-.774-.386-1.647-.58-2.619-.58-.973 0-1.84.194-2.602.58-.762.375-1.412.938-1.951 1.688-.527.738-.932 1.658-1.213 2.76-.281 1.09-.422 2.35-.422 3.779v1.441c0 1.43.141 2.696.422 3.797.281 1.102.691 2.033 1.23 2.795.551.75 1.207 1.318 1.969 1.705.762.375 1.629.563 2.602.563.984 0 1.857-.188 2.619-.563.762-.387 1.406-.955 1.933-1.705.528-.762.926-1.693 1.196-2.795.281-1.101.422-2.367.422-3.797zm28.476-.984v9.773c-.363.48-.931 1.008-1.705 1.582-.762.563-1.775 1.05-3.041 1.46-1.265.41-2.842.615-4.728.615-1.606 0-3.077-.27-4.413-.809a9.664 9.664 0 01-3.462-2.408c-.961-1.055-1.705-2.338-2.233-3.85-.527-1.523-.791-3.258-.791-5.203v-1.775c0-1.934.24-3.657.721-5.168.492-1.524 1.195-2.813 2.109-3.867a8.817 8.817 0 013.305-2.391c1.301-.55 2.771-.826 4.412-.826 2.098 0 3.832.351 5.203 1.054 1.383.692 2.449 1.653 3.199 2.883s1.225 2.637 1.424 4.219h-4.324c-.141-.89-.416-1.688-.826-2.39a4.19 4.19 0 00-1.723-1.653c-.738-.41-1.699-.615-2.883-.615-1.019 0-1.916.193-2.689.58a5.083 5.083 0 00-1.934 1.705c-.504.75-.884 1.664-1.142 2.742-.258 1.078-.387 2.309-.387 3.692v1.81c0 1.406.147 2.654.439 3.744.305 1.09.739 2.01 1.301 2.76a5.637 5.637 0 002.092 1.705c.82.375 1.746.563 2.777.563 1.008 0 1.834-.082 2.479-.247.644-.175 1.154-.38 1.529-.615.387-.246.686-.48.897-.703v-5.08h-5.326v-3.287h9.72zm25.295-.422v1.406c0 1.934-.252 3.668-.756 5.203-.504 1.535-1.224 2.842-2.162 3.92a9.298 9.298 0 01-3.34 2.479c-1.3.562-2.742.844-4.324.844-1.57 0-3.006-.282-4.307-.844a9.67 9.67 0 01-3.357-2.479c-.949-1.078-1.687-2.385-2.215-3.92-.515-1.535-.773-3.27-.773-5.203V48.5c0-1.934.258-3.662.773-5.185.516-1.536 1.242-2.842 2.18-3.92a9.386 9.386 0 013.357-2.479c1.301-.574 2.737-.861 4.307-.861 1.582 0 3.023.287 4.324.861a9.195 9.195 0 013.358 2.479c.937 1.078 1.658 2.384 2.162 3.92.515 1.523.773 3.251.773 5.185zm-4.412 1.406v-1.441c0-1.43-.141-2.69-.422-3.78-.269-1.101-.674-2.02-1.213-2.76-.527-.75-1.177-1.312-1.951-1.687-.773-.386-1.646-.58-2.619-.58-.973 0-1.84.194-2.602.58-.761.375-1.412.938-1.951 1.688-.527.738-.931 1.658-1.213 2.76-.281 1.09-.422 2.35-.422 3.779v1.441c0 1.43.141 2.696.422 3.797.282 1.102.692 2.033 1.231 2.795.551.75 1.207 1.318 1.969 1.705.761.375 1.628.563 2.601.563.984 0 1.858-.188 2.619-.563.762-.387 1.407-.955 1.934-1.705.527-.762.926-1.693 1.195-2.795.281-1.101.422-2.367.422-3.797z" fill="#000"/><rect x="1" y="1" width="198" height="98" rx="9" stroke="#000" stroke-width="2"/></svg>
